Catalina-dark/places/16/folder-new-symbolic.svg

<svg width="36" height="36" version="1.1" xmlns="http://www.w3.org/2000/svg">
<g transform="translate(-442,-156)" fill="#e8f1f5">
<path d="m444.12 157.97c-1.1752 0-2.1211 0.94588-2.1211 2.1211v24.783c0 1.1752 0.94588 2.1211 2.1211 2.1211h31.758c1.1752 0 2.1211-0.94588 2.1211-2.1211v-21.758c0-1.1752-0.94588-2.1211-2.1211-2.1211h-19.537c-1.3047-0.0511-1.6297-0.64731-2.3413-1.5894s-1.1674-1.436-2.1216-1.436zm1.166 2h5.4258c1.3355 0 1.7571 1.0151 2.2718 1.5299s1.9584 1.4955 2.7711 1.4955h18.957c0.71285 0 1.2871 0.57426 1.2871 1.2871v0.72461c-0.041-2e-3 -0.0795-0.0117-0.12109-0.0117h-31.758c-0.0416 0-0.0801 9e-3 -0.12109 0.0117v-3.75c0-0.71285 0.57426-1.2871 1.2871-1.2871zm0 7.0254h29.426c0.71285 0 1.2871 0.57426 1.2871 1.2871v15.426c0 0.71285-0.57426 1.2871-1.2871 1.2871h-29.426c-0.71285 0-1.2871-0.57426-1.2871-1.2871v-15.426c0-0.71285 0.57426-1.2871 1.2871-1.2871z" fill-opacity=".91255" opacity=".75"/>
<path d="m445.29 167h29.426c0.71285 0 1.2871 0.57426 1.2871 1.2871v15.426c0 0.71285-0.57426 1.2871-1.2871 1.2871h-29.426c-0.71285 0-1.2871-0.57426-1.2871-1.2871v-15.426c0-0.71285 0.57426-1.2871 1.2871-1.2871z" fill-opacity=".68235"/>
<path d="m444 183v0.71289c0 0.71285 0.57426 1.2871 1.2871 1.2871h29.426c0.71285 0 1.2871-0.57426 1.2871-1.2871v-0.71289z" fill-opacity=".68235" opacity=".3"/>
<path transform="translate(442,156)" d="m16.5 13v4.5h-4.5v3h4.5v4.5h3v-4.5h4.5v-3h-4.5v-4.5h-3z" fill-opacity=".95817" opacity=".75"/>
</g>
</svg>

<?xml version="1.0" encoding="UTF-8" standalone="no"?>
<!-- Created with Inkscape (http://www.inkscape.org/) -->

<svg
   xmlns:dc="http://purl.org/dc/elements/1.1/"
   xmlns:cc="http://creativecommons.org/ns#"
   xmlns:rdf="http://www.w3.org/1999/02/22-rdf-syntax-ns#"
   xmlns:svg="http://www.w3.org/2000/svg"
   xmlns="http://www.w3.org/2000/svg"
   xmlns:sodipodi="http://sodipodi.sourceforge.net/DTD/sodipodi-0.dtd"
   xmlns:inkscape="http://www.inkscape.org/namespaces/inkscape"
   id="svg7384"
   sodipodi:docname="folder-new-symbolic.svg"
   version="1.1"
   inkscape:version="0.92.4 5da689c313, 2019-01-14"
   height="36"
   width="36">
  <metadata
     id="metadata90">
    <rdf:RDF>
      <cc:Work
         rdf:about="">
        <dc:format>image/svg+xml</dc:format>
        <dc:type
           rdf:resource="http://purl.org/dc/dcmitype/StillImage" />
        <dc:title>Gnome Symbolic Icon Theme</dc:title>
      </cc:Work>
    </rdf:RDF>
  </metadata>
  <sodipodi:namedview
     inkscape:cy="4.2762181"
     pagecolor="#ffffff"
     borderopacity="1"
     showborder="true"
     inkscape:bbox-paths="false"
     guidetolerance="10"
     inkscape:window-width="1920"
     showguides="false"
     inkscape:object-nodes="true"
     inkscape:snap-bbox="true"
     inkscape:pageshadow="2"
     inkscape:guide-bbox="true"
     inkscape:snap-nodes="true"
     bordercolor="#666666"
     objecttolerance="10"
     id="namedview88"
     showgrid="false"
     inkscape:window-maximized="1"
     inkscape:window-x="0"
     inkscape:snap-global="true"
     inkscape:window-y="26"
     gridtolerance="10"
     inkscape:window-height="1031"
     inkscape:snap-to-guides="true"
     inkscape:current-layer="layer13"
     inkscape:zoom="4"
     inkscape:cx="-77.753745"
     inkscape:snap-grids="true"
     inkscape:pageopacity="1">
    <inkscape:grid
       spacingx="1"
       spacingy="1"
       id="grid4866"
       empspacing="2"
       enabled="true"
       type="xygrid"
       snapvisiblegridlinesonly="true"
       visible="true"
       originx="0"
       originy="0" />
  </sodipodi:namedview>
  <title
     id="title9167">Gnome Symbolic Icon Theme</title>
  <defs
     id="defs7386" />
  <g
     inkscape:label="status"
     transform="translate(-442,-156)"
     inkscape:groupmode="layer"
     id="layer9"
     style="display:inline" />
  <g
     inkscape:label="devices"
     transform="translate(-442,-156)"
     inkscape:groupmode="layer"
     id="layer10" />
  <g
     inkscape:label="apps"
     transform="translate(-442,-156)"
     inkscape:groupmode="layer"
     id="layer11" />
  <g
     inkscape:label="actions"
     transform="translate(-442,-156)"
     inkscape:groupmode="layer"
     id="layer12" />
  <g
     inkscape:label="places"
     transform="translate(-442,-156)"
     inkscape:groupmode="layer"
     id="layer13">
    <path
       sodipodi:nodetypes="sscccsssscssczsssczssscsscssssssssscss"
       inkscape:connector-curvature="0"
       id="path4193"
       d="m 444.12109,157.97461 c -1.17521,0 -2.12109,0.94588 -2.12109,2.12109 v 3.02539 4 0.74805 17.00977 c 0,1.17521 0.94588,2.12109 2.12109,2.12109 h 31.75782 C 477.05412,187 478,186.05412 478,184.87891 v -17.75782 -4 C 478,161.94588 477.05412,161 475.87891,161 h -19.53708 c -1.30467,-0.0511 -1.62972,-0.64731 -2.34133,-1.58935 -0.71161,-0.94204 -1.16735,-1.43604 -2.12159,-1.43604 z m 1.16602,2 h 5.42578 c 1.33551,0 1.75708,1.01512 2.27183,1.52987 0.51475,0.51475 1.95841,1.49552 2.7711,1.49552 h 18.95707 c 0.71285,0 1.28711,0.57426 1.28711,1.28711 v 0.72461 c -0.041,-0.002 -0.0795,-0.0117 -0.12109,-0.0117 h -31.75782 c -0.0416,0 -0.0801,0.009 -0.12109,0.0117 v -3.75 c 0,-0.71285 0.57426,-1.28711 1.28711,-1.28711 z m 0,7.02539 h 29.42578 c 0.71285,0 1.28711,0.57426 1.28711,1.28711 v 15.42578 C 476,184.42574 475.42574,185 474.71289,185 H 445.28711 C 444.57426,185 444,184.42574 444,183.71289 v -12.82227 -2.60351 C 444,167.57426 444.57426,167 445.28711,167 Z"
       style="opacity:0.75;fill:#e8f1f5;fill-opacity:0.91254753" />
    <path
       style="opacity:1;fill:#e8f1f5;fill-opacity:0.68235296"
       d="m 445.28711,167 h 29.42578 c 0.71285,0 1.28711,0.57426 1.28711,1.28711 v 15.42578 C 476,184.42574 475.42574,185 474.71289,185 H 445.28711 C 444.57426,185 444,184.42574 444,183.71289 V 168.28711 C 444,167.57426 444.57426,167 445.28711,167 Z"
       id="path4195"
       inkscape:connector-curvature="0"
       sodipodi:nodetypes="sssssssss" />
    <path
       id="path4197"
       d="m 444,183 v 0.71289 c 0,0.71285 0.57426,1.28711 1.28711,1.28711 h 29.42578 C 475.42574,185 476,184.42574 476,183.71289 V 183 Z"
       style="opacity:0.3;fill:#e8f1f5;fill-opacity:0.68235296"
       inkscape:connector-curvature="0" />
    <path
       style="opacity:0.75;fill:#e8f1f5;fill-opacity:0.95817488;stroke:none"
       d="M 16.5 13 L 16.5 17.5 L 12 17.5 L 12 20.5 L 16.5 20.5 L 16.5 25 L 19.5 25 L 19.5 20.5 L 24 20.5 L 24 17.5 L 19.5 17.5 L 19.5 13 L 16.5 13 z "
       transform="translate(442,156)"
       id="rect4206" />
  </g>
  <g
     inkscape:label="mimetypes"
     transform="translate(-442,-156)"
     inkscape:groupmode="layer"
     id="layer14" />
  <g
     inkscape:label="emblems"
     transform="translate(-442,-156)"
     inkscape:groupmode="layer"
     id="layer15"
     style="display:inline" />
</svg>
